X:1
T:Minuet. SenH.138, A
T:Minuet. SenH.138, A
T:in Hand C
C:in Hand C
L:1/8
Q:1/4=100
M:3/4
K:C
V:1 treble 
V:1
 c4 d2 | e2 f2 g2 | g2 f2 e2 | d4 e2 | f2 afdf | e2 gece | f2 afdf | e2 gece | d2 c2 B2 | c4 || %10
 z2 | g2 c'2 b2 | c'2 d'2 e'2 | e'2 d'2 c'2 | b4 a2 | b2 d'bgb | a2 c'afa | b2 d'bgb | a2 c'afa | %19
 a2 d2 ^f2 | g4 g2 | c'4 c'2 | f2 afdf | e2 gece | d2 G2 c2 | c4 d2 | edef g2 | c4 d2 | edef g2 | %29
 c'2 e2 d2 | c4 |] %31

